illustfolio3/dist/images/compare_cover.svg

<svg width="40" height="40" viewBox="0 0 40 40" fill="none" xmlns="http://www.w3.org/2000/svg">
<mask id="mask0_1636_382" style="mask-type:alpha" maskUnits="userSpaceOnUse" x="0" y="0" width="40" height="40">
<rect width="40" height="40" fill="#D9D9D9"/>
</mask>
<g mask="url(#mask0_1636_382)">
<path d="M7.77792 35C7.02792 35 6.37736 34.7246 5.82625 34.1737C5.27542 33.6226 5 32.9721 5 32.2221V7.77792C5 7.02792 5.27542 6.37736 5.82625 5.82625C6.37736 5.27542 7.02792 5 7.77792 5H20.9721C21.3657 5 21.6956 5.13361 21.9617 5.40083C22.2281 5.66778 22.3612 5.99875 22.3612 6.39375C22.3612 6.78875 22.2281 7.11819 21.9617 7.38208C21.6956 7.64597 21.3657 7.77792 20.9721 7.77792H7.77792V32.2221H32.2221V19.0279C32.2221 18.6343 32.3557 18.3044 32.6229 18.0383C32.8901 17.7719 33.2211 17.6388 33.6158 17.6388C34.0108 17.6388 34.3403 17.7719 34.6042 18.0383C34.8681 18.3044 35 18.6343 35 19.0279V32.2221C35 32.9721 34.7246 33.6226 34.1737 34.1737C33.6226 34.7246 32.9721 35 32.2221 35H7.77792ZM10 28.2779H30L23.9167 20.1667L18.7221 27.0279L14.8613 21.9167L10 28.2779ZM28.6946 11.3333H26.5279C26.1343 11.3333 25.8044 11.1997 25.5383 10.9325C25.2719 10.6656 25.1388 10.3346 25.1388 9.93958C25.1388 9.54458 25.2719 9.21514 25.5383 8.95125C25.8044 8.68736 26.1343 8.55542 26.5279 8.55542H28.6946V6.38875C28.6946 5.99542 28.8281 5.66556 29.095 5.39917C29.3622 5.13306 29.6933 5 30.0883 5C30.4831 5 30.8124 5.13306 31.0763 5.39917C31.3401 5.66556 31.4721 5.99542 31.4721 6.38875V8.55542H33.6112C34.0046 8.55542 34.3344 8.68903 34.6008 8.95625C34.8669 9.22347 35 9.55445 35 9.94917C35 10.3442 34.8669 10.6736 34.6008 10.9375C34.3344 11.2014 34.0046 11.3333 33.6112 11.3333H31.4721V13.4721C31.4721 13.8657 31.3386 14.1956 31.0717 14.4617C30.8044 14.7281 30.4733 14.8612 30.0783 14.8612C29.6836 14.8612 29.3543 14.7281 29.0904 14.4617C28.8265 14.1956 28.6946 13.8657 28.6946 13.4721V11.3333Z" fill="#4B4B4B"/>
</g>
</svg>

<svg width="40" height="40" fill="none" xmlns="http://www.w3.org/2000/svg"><mask id="a" style="mask-type:alpha" maskUnits="userSpaceOnUse" x="0" y="0" width="40" height="40"><path fill="#D9D9D9" d="M0 0h40v40H0z"/></mask><g mask="url(#a)"><path d="M7.778 35c-.75 0-1.4-.275-1.952-.826-.55-.551-.826-1.202-.826-1.952V7.778c0-.75.275-1.4.826-1.952C6.377 5.276 7.028 5 7.778 5h13.194c.394 0 .724.134.99.4.266.268.4.599.4.994s-.134.724-.4.988a1.35 1.35 0 0 1-.99.396H7.778v24.444h24.444V19.028c0-.394.134-.724.4-.99.268-.266.6-.4.994-.4.395 0 .724.134.988.4s.396.596.396.99v13.194c0 .75-.275 1.4-.826 1.952-.551.55-1.202.826-1.952.826H7.778ZM10 28.278h20l-6.083-8.111-5.195 6.86-3.86-5.11L10 28.277Zm18.695-16.945h-2.167c-.394 0-.724-.133-.99-.4a1.35 1.35 0 0 1-.4-.993c0-.395.134-.725.4-.989a1.35 1.35 0 0 1 .99-.396h2.167V6.39c0-.394.133-.723.4-.99.267-.266.598-.399.993-.399s.724.133.988.4c.264.266.396.595.396.989v2.166h2.14c.393 0 .722.134.989.401.266.267.399.598.399.993s-.133.725-.4.989a1.35 1.35 0 0 1-.989.395h-2.139v2.14c0 .393-.133.723-.4.989-.268.266-.599.4-.994.4-.394 0-.724-.134-.988-.4a1.35 1.35 0 0 1-.395-.99v-2.139Z" fill="#4B4B4B"/></g></svg>
